source/img/about-us/seo-element-4.svg

<svg width="75" height="74" viewBox="0 0 75 74" fill="none" xmlns="http://www.w3.org/2000/svg">
<g opacity="0.2">
<path opacity="0.2" d="M68.5511 42.5067C71.6076 25.3646 60.2008 8.9924 43.0732 5.93841C25.9456 2.88441 9.58307 14.3051 6.52654 31.4472C3.47 48.5892 14.8769 64.9614 32.0045 68.0154C49.1321 71.0694 65.4945 59.6487 68.5511 42.5067Z" fill="#4A4741"/>
<path opacity="0.2" d="M68.678 42.3551C71.7139 25.2093 60.2882 8.84662 43.1579 5.80793C26.0275 2.76925 9.67953 14.2053 6.64357 31.351C3.60761 48.4968 15.0334 64.8595 32.1637 67.8982C49.294 70.9368 65.642 59.5008 68.678 42.3551Z" fill="#494640"/>
<path opacity="0.2" d="M68.8069 42.2498C71.8635 25.1077 60.4566 8.73556 43.329 5.68157C26.2014 2.62758 9.83894 14.0483 6.7824 31.1903C3.72586 48.3324 15.1327 64.7046 32.2603 67.7585C49.3879 70.8125 65.7504 59.3919 68.8069 42.2498Z" fill="#49453F"/>
<path opacity="0.2" d="M68.9179 42.1476C71.9837 25.0072 60.5865 8.62454 43.4615 5.55593C26.3365 2.48732 9.96861 13.8947 6.90276 31.0351C3.83692 48.1756 15.2341 64.5582 32.3591 67.6268C49.4841 70.6954 65.852 59.288 68.9179 42.1476Z" fill="#48443E"/>
</g>
<path d="M68.8684 41.9449C71.8262 24.7855 60.3253 8.47935 43.1804 5.52407C26.0355 2.56879 9.73907 14.0835 6.7813 31.2429C3.82353 48.4023 15.3245 64.7085 32.4693 67.6638C49.6142 70.6191 65.9106 59.1043 68.8684 41.9449Z" fill="#0A3D76"/>
<path d="M55.5343 54.3306C65.3206 44.5354 65.3206 28.6543 55.5342 18.8591C45.7479 9.06389 29.8811 9.06388 20.0947 18.8591C10.3084 28.6543 10.3084 44.5354 20.0948 54.3306C29.8811 64.1258 45.7479 64.1258 55.5343 54.3306Z" fill="white"/>
<path d="M37.8121 10.3423C23.3534 10.3423 11.584 22.1183 11.584 36.596C11.584 50.7633 22.8592 62.347 36.8977 62.8317C37.2018 62.8417 37.4979 62.8477 37.8121 62.8477C38.1963 62.8477 38.5744 62.8357 38.9526 62.8197C45.7763 62.4841 52.1999 59.4968 56.8567 54.4933C61.5135 49.4898 64.0359 42.8651 63.8873 36.0286C63.7387 29.1921 60.9308 22.6835 56.061 17.8875C51.1912 13.0914 44.6439 10.3865 37.8121 10.3483V10.3423ZM38.9626 60.4745C38.5804 60.4905 38.1963 60.5025 37.8121 60.5025C37.5099 60.5025 37.2118 60.5025 36.9017 60.4865C30.7315 60.243 24.8946 57.6203 20.6124 53.1674C16.3302 48.7145 13.9347 42.7765 13.9271 36.596C13.9271 23.4121 24.644 12.6755 37.8121 12.6755C44.0472 12.677 50.0345 15.1185 54.4956 19.4784C58.9567 23.8383 61.538 29.7712 61.6882 36.01C61.8384 42.2489 59.5456 48.2993 55.2995 52.8692C51.0533 57.4391 45.1904 60.1664 38.9626 60.4685V60.4745Z" fill="#F34A57"/>
<path d="M37.8135 16.3584C26.6083 16.3584 17.4941 25.4367 17.4941 36.5859C17.4941 47.735 26.6103 56.8134 37.8135 56.8134C49.0167 56.8134 58.1329 47.737 58.1329 36.5859C58.1329 25.4347 49.0187 16.3584 37.8135 16.3584ZM37.8135 54.4862C27.9009 54.4862 19.8352 46.4613 19.8352 36.5939C19.8352 26.7265 27.9009 18.7015 37.8135 18.7015C47.7261 18.7015 55.7938 26.7285 55.7938 36.5939C55.7938 46.4593 47.7281 54.4862 37.8135 54.4862Z" fill="#F34A57"/>
<path d="M37.8129 22.3789C29.8672 22.3789 23.4062 28.7555 23.4062 36.5982C23.4062 44.4409 29.8712 50.8176 37.8129 50.8176C45.7546 50.8176 52.2195 44.4409 52.2195 36.5982C52.2195 28.7555 45.7586 22.3789 37.8129 22.3789ZM37.8129 48.4684C31.1578 48.4684 25.7413 43.1411 25.7413 36.5942C25.7413 30.0473 31.1578 24.72 37.8129 24.72C44.468 24.72 49.8945 30.0473 49.8945 36.5942C49.8945 43.1411 44.47 48.4684 37.8129 48.4684Z" fill="#F34A57"/>
<path d="M37.8144 28.3955C33.1262 28.3955 29.3145 32.0745 29.3145 36.5946C29.3145 41.1148 33.1262 44.7938 37.8144 44.7938C42.5025 44.7938 46.3163 41.1168 46.3163 36.5946C46.3163 32.0725 42.5025 28.3955 37.8144 28.3955ZM37.8144 42.4526C34.4128 42.4526 31.6535 39.825 31.6535 36.5946C31.6535 33.3642 34.4168 30.7387 37.8144 30.7387C41.2119 30.7387 43.9752 33.3662 43.9752 36.5946C43.9752 39.823 41.2119 42.4526 37.8144 42.4526Z" fill="#F34A57"/>
<path d="M41.0404 36.5956C41.0412 37.2081 40.8604 37.8071 40.521 38.3168C40.1816 38.8265 39.6987 39.224 39.1335 39.459C38.5683 39.6939 37.9462 39.7558 37.3459 39.6368C36.7456 39.5178 36.194 39.2232 35.761 38.7904C35.328 38.3575 35.0329 37.8058 34.9132 37.2051C34.7936 36.6044 34.8546 35.9816 35.0886 35.4156C35.3226 34.8497 35.7191 34.3659 36.2279 34.0255C36.7367 33.6851 37.3349 33.5034 37.9469 33.5034C38.7667 33.5034 39.5529 33.829 40.1329 34.4088C40.7129 34.9886 41.0393 35.7751 41.0404 36.5956Z" fill="#F34A57"/>
<path d="M57.2618 16.0517L56.6875 11.9921L60.4893 8.26904L60.8354 12.4728L57.2618 16.0517Z" fill="#F34A57"/>
<path d="M58.4492 17.229L62.5191 17.8138L66.2288 13.9986L62.0269 13.6621L58.4492 17.229Z" fill="#F34A57"/>
<g style="mix-blend-mode:soft-light">
<g style="mix-blend-mode:soft-light">
<path d="M57.7988 10.9088L58.3516 14.9703L58.5078 14.766L58.0011 10.7085L57.7988 10.9088Z" fill="#201600"/>
</g>
</g>
<g style="mix-blend-mode:soft-light">
<g style="mix-blend-mode:soft-light">
<path d="M59.0195 9.69681L59.5743 13.7583L59.7285 13.556L59.2238 9.49854L59.0195 9.69681Z" fill="#201600"/>
</g>
</g>
<g style="mix-blend-mode:soft-light">
<g style="mix-blend-mode:soft-light">
<path d="M60.8294 14.6538L65.2915 15.1645L65.0714 15.3207L60.6113 14.8601L60.8294 14.6538Z" fill="#201600"/>
</g>
</g>
<g style="mix-blend-mode:soft-light">
<g style="mix-blend-mode:soft-light">
<path d="M59.4524 16.0391L63.9165 16.5358L63.6964 16.694L59.2363 16.2454L59.4524 16.0391Z" fill="#201600"/>
</g>
</g>
<path d="M38.8499 36.9123C38.7673 36.9975 38.6684 37.0651 38.559 37.1112C38.4497 37.1573 38.3323 37.1809 38.2137 37.1807C38.0315 37.18 37.8539 37.1238 37.7046 37.0194C37.5553 36.9151 37.4413 36.7675 37.378 36.5966C37.3147 36.4257 37.3051 36.2395 37.3503 36.0629C37.3956 35.8863 37.4937 35.7278 37.6314 35.6085L60.8421 12.4751L62.0246 13.6587L38.8499 36.9123Z" fill="#5D4837"/>
<g style="mix-blend-mode:darken" filter="url(#filter0_f)">
<g style="mix-blend-mode:darken">
<path d="M61.1151 57.2757L40.9538 36.89L38.9529 34.9053C38.6708 35.1596 38.3947 35.4179 38.1225 35.6903C37.9044 35.9086 37.6963 36.1269 37.4902 36.3512L39.4912 38.3399L59.8526 58.5394L60.5129 57.8024L61.1151 57.2757Z" fill="#C9C8C8"/>
</g>
</g>
<defs>
<filter id="filter0_f" x="35.4902" y="32.9053" width="27.6249" height="27.6341" filterUnits="userSpaceOnUse" color-interpolation-filters="sRGB">
<feFlood flood-opacity="0" result="BackgroundImageFix"/>
<feBlend mode="normal" in="SourceGraphic" in2="BackgroundImageFix" result="shape"/>
<feGaussianBlur stdDeviation="1" result="effect1_foregroundBlur"/>
</filter>
</defs>
</svg>

<svg width="75" height="74" fill="none" xmlns="http://www.w3.org/2000/svg"><g opacity=".2"><path opacity=".2" d="M68.551 42.507c3.057-17.142-8.35-33.515-25.478-36.569-17.127-3.054-33.49 8.367-36.546 25.51-3.057 17.141 8.35 33.513 25.477 36.567 17.128 3.054 33.49-8.366 36.547-25.508z" fill="#4A4741"/><path opacity=".2" d="M68.678 42.355c3.036-17.146-8.39-33.508-25.52-36.547C26.028 2.769 9.68 14.205 6.644 31.35c-3.036 17.146 8.39 33.508 25.52 36.547 17.13 3.039 33.478-8.397 36.514-25.543z" fill="#494640"/><path opacity=".2" d="M68.807 42.25c3.056-17.142-8.35-33.514-25.478-36.568C26.201 2.628 9.839 14.048 6.782 31.19c-3.056 17.142 8.35 33.515 25.478 36.57 17.128 3.053 33.49-8.367 36.547-25.51z" fill="#49453F"/><path opacity=".2" d="M68.918 42.148c3.066-17.14-8.332-33.523-25.457-36.592C26.338 2.487 9.97 13.895 6.904 31.036c-3.066 17.14 8.331 33.522 25.456 36.59 17.125 3.07 33.493-8.338 36.559-25.478z" fill="#48443E"/></g><path d="M68.868 41.945c2.958-17.16-8.543-33.466-25.688-36.42C26.035 2.568 9.74 14.083 6.781 31.242c-2.957 17.16 8.544 33.466 25.688 36.42 17.145 2.956 33.442-8.559 36.4-25.718z" fill="#0A3D76"/><path d="M55.534 54.33c9.787-9.795 9.787-25.676 0-35.47-9.786-9.796-25.653-9.796-35.44 0-9.786 9.794-9.786 25.675 0 35.47 9.787 9.796 25.654 9.796 35.44 0z" fill="#fff"/><path d="M37.812 10.342c-14.459 0-26.228 11.776-26.228 26.254 0 14.167 11.275 25.751 25.314 26.236.304.01.6.016.914.016.384 0 .762-.012 1.14-.028a26.218 26.218 0 0017.905-8.327 26.265 26.265 0 00-.796-36.606 26.216 26.216 0 00-18.249-7.539v-.006zm1.15 50.132a27.52 27.52 0 01-1.15.029c-.302 0-.6 0-.91-.017a23.907 23.907 0 01-16.29-7.319 23.95 23.95 0 01-6.685-16.571c0-13.184 10.717-23.92 23.885-23.92a23.877 23.877 0 0116.684 6.802 23.923 23.923 0 01.804 33.39 23.88 23.88 0 01-16.337 7.6v.006z" fill="#F34A57"/><path d="M37.813 16.358c-11.205 0-20.319 9.079-20.319 20.228 0 11.149 9.116 20.227 20.32 20.227 11.203 0 20.319-9.076 20.319-20.227s-9.114-20.228-20.32-20.228zm0 38.128c-9.912 0-17.978-8.025-17.978-17.892 0-9.867 8.066-17.893 17.978-17.893 9.913 0 17.98 8.027 17.98 17.893 0 9.865-8.065 17.892-17.98 17.892z" fill="#F34A57"/><path d="M37.813 22.379c-7.946 0-14.407 6.377-14.407 14.22 0 7.842 6.465 14.219 14.407 14.219s14.406-6.377 14.406-14.22c0-7.842-6.46-14.22-14.406-14.22zm0 26.09c-6.655 0-12.072-5.328-12.072-11.875S31.158 24.72 37.813 24.72c6.655 0 12.081 5.327 12.081 11.874 0 6.547-5.424 11.874-12.081 11.874z" fill="#F34A57"/><path d="M37.814 28.395c-4.688 0-8.5 3.68-8.5 8.2s3.812 8.199 8.5 8.199c4.688 0 8.502-3.677 8.502-8.2 0-4.522-3.814-8.199-8.502-8.199zm0 14.058c-3.401 0-6.16-2.628-6.16-5.858 0-3.23 2.763-5.856 6.16-5.856 3.398 0 6.161 2.627 6.161 5.856 0 3.228-2.763 5.858-6.16 5.858z" fill="#F34A57"/><path d="M41.04 36.596a3.098 3.098 0 01-1.907 2.863 3.091 3.091 0 01-4.22-2.254 3.1 3.1 0 011.315-3.18 3.091 3.091 0 014.812 2.57zm16.222-20.544l-.575-4.06L60.49 8.27l.346 4.204-3.573 3.579zm1.188 1.177l4.07.585 3.709-3.815-4.202-.337-3.578 3.567z" fill="#F34A57"/><path d="M57.799 10.909l.553 4.061.156-.204L58 10.709l-.202.2zm1.221-1.212l.554 4.061.154-.202-.504-4.057-.204.198zm1.81 4.957l4.462.51-.22.157-4.46-.46.217-.207zm-1.378 1.386l4.465.496-.22.158-4.46-.449.215-.206z" fill="#201600"/><path d="M38.85 36.912a.882.882 0 01-1.145.107.895.895 0 01-.074-1.41l23.211-23.134 1.183 1.184L38.85 36.912z" fill="#5D4837"/><g style="mix-blend-mode:darken" filter="url(#filter0_f)"><path d="M61.115 57.276L40.954 36.89l-2.001-1.985a21.734 21.734 0 00-1.463 1.446l2.001 1.989 20.362 20.2.66-.738.602-.526z" fill="#C9C8C8"/></g><defs><filter id="filter0_f" x="35.49" y="32.905" width="27.625" height="27.634" filterUnits="userSpaceOnUse" color-interpolation-filters="sRGB"><feFlood flood-opacity="0" result="BackgroundImageFix"/><feBlend in="SourceGraphic" in2="BackgroundImageFix" result="shape"/><feGaussianBlur stdDeviation="1" result="effect1_foregroundBlur"/></filter></defs></svg>
